X:757
T:The Triumph
S:Colin Hume's website,  colinhume.com  - chords can also be printed below the stave.
Q:1/2=80
M:4/4
L:1/8
K:G
P:A
|: g | "G"dBBd "D7"cBcA | "Em"Ggfg "C"e2eg | "G"dBBd "D"cBcA | "Em"GB "D7"AF "G"G3 g |\
"G"dBBd "D7"cBcA | "Em"Ggfg "C"e2eg | "G"dBBd "D"cBcA | "Em"GB "D7"AF "G"G3 :|
P:B
B | "D7"A3c "G"B2d2 | "D7"A3c "G"B2d2 | "D7"A2c2 "G"Bdge | "D7"dcBA "G"G3 B |\
"D7"A3c "G"B2d2 | "D7"A3c "G"B2d2 | "D7"A2c2 "G"Bdge | "D7"dcBA "G"G3 ||
P:C
A | "G"B3d "D7"dcBA | "G"B2d2 "D7"dcBA | "G"B2d2 "C"efge | "D7"dcBA "G"G3A |\
"G"B3d "D7"dcBA | "G"B2d2 "D7"dcBA | "G"B2d2 "C"efge | "Am"fgaf "D7"agfe |]
P:Last time last bar
"D7"fgaf "G"g2 |]

